X:350
T:Britains,The. (p)1696.PLFD.350
M:6/4
L:1/4
Q:3/4=80
S:Playford, Dancing Master,9th Ed,1st Supp.,1696.
O:England
H:1696.
Z:Chris Partington
K:Bb
G|c>dcccG|c>dcccG|c>ded>e(d/c/)|=B2GG2_A|
B_AGAGF|def=B2_A|G>FED2C|C3-C2:|
|:D|E2FG>FE|GABB2(_A/G/)|c2dedc|deff2(e/d/)|
g2_abag|f2efed|edcc2=B|c3-c2:|
